src/gui/emoticons/pig.svg

<svg xmlns="http://www.w3.org/2000/svg" xmlns:xlink="http://www.w3.org/1999/xlink" width="16pt" height="16pt" version="1.1" viewBox="0 0 16 16"><defs><linearGradient id="linear0" x1="64" x2="64" y1="118.5" y2="10.998" gradientTransform="matrix(0.125,0,0,0.125,0,0)" gradientUnits="userSpaceOnUse"><stop offset=".001" style="stop-color:#e08787;stop-opacity:1"/><stop offset=".43" style="stop-color:#ffb5b5;stop-opacity:1"/></linearGradient><linearGradient id="linear1" x1="-334.83" x2="-334.83" y1="57.052" y2="-34.285" gradientTransform="matrix(-0.125,0,0,0.125,-28.74,0)" gradientUnits="userSpaceOnUse"><stop offset="0" style="stop-color:#f99;stop-opacity:1"/><stop offset=".43" style="stop-color:#ffb5b5;stop-opacity:1"/></linearGradient><linearGradient id="linear2" x1="-262.96" x2="-262.96" y1="57.052" y2="-34.285" gradientTransform="matrix(0.125,0,0,0.125,35.75625,0)" gradientUnits="userSpaceOnUse"><stop offset="0" style="stop-color:#f99;stop-opacity:1"/><stop offset=".43" style="stop-color:#ffb5b5;stop-opacity:1"/></linearGradient></defs><g id="surface1"><path style="stroke:none;fill-rule:nonzero;fill:url(#linear0)" d="M 8 14.8125 C 3.730469 14.8125 1.28125 12.710938 1.28125 9.050781 C 1.28125 7.132812 1.921875 5.222656 3.039062 3.804688 C 3.914062 2.695312 5.484375 1.375 8 1.375 C 10.515625 1.375 12.085938 2.695312 12.960938 3.804688 C 14.078125 5.222656 14.71875 7.136719 14.71875 9.050781 C 14.71875 12.710938 12.269531 14.8125 8 14.8125 Z M 8 14.8125"/><path style="stroke:none;fill-rule:nonzero;fill:#ed7e7e;fill-opacity:1" d="M 8 1.5625 C 10.441406 1.5625 11.964844 2.84375 12.8125 3.921875 C 13.90625 5.304688 14.53125 7.175781 14.53125 9.050781 C 14.53125 10.824219 13.960938 12.210938 12.835938 13.171875 C 11.722656 14.121094 10.046875 14.625 8 14.625 C 5.953125 14.625 4.277344 14.121094 3.164062 13.171875 C 2.039062 12.210938 1.46875 10.828125 1.46875 9.050781 C 1.46875 7.175781 2.09375 5.304688 3.1875 3.921875 C 4.035156 2.84375 5.558594 1.5625 8 1.5625 M 8 1.1875 C 3.585938 1.1875 1.09375 5.238281 1.09375 9.050781 C 1.09375 12.867188 3.664062 15 8 15 C 12.335938 15 14.90625 12.867188 14.90625 9.050781 C 14.90625 5.238281 12.414062 1.1875 8 1.1875 Z M 8 1.1875"/><path style="stroke:none;fill-rule:nonzero;fill:#404040;fill-opacity:1" d="M 5.308594 7.453125 C 5.308594 6.734375 4.792969 6.152344 4.160156 6.152344 C 3.527344 6.152344 3.011719 6.734375 3.011719 7.453125 C 3.011719 8.167969 3.527344 8.75 4.160156 8.75 C 4.792969 8.75 5.308594 8.167969 5.308594 7.453125 Z M 5.308594 7.453125"/><path style="stroke:none;fill-rule:nonzero;fill:#404040;fill-opacity:1" d="M 12.988281 7.453125 C 12.988281 6.734375 12.472656 6.152344 11.839844 6.152344 C 11.207031 6.152344 10.691406 6.734375 10.691406 7.453125 C 10.691406 8.167969 11.207031 8.75 11.839844 8.75 C 12.472656 8.75 12.988281 8.167969 12.988281 7.453125 Z M 12.988281 7.453125"/><path style="stroke:none;fill-rule:nonzero;fill:#eb7070;fill-opacity:1" d="M 8 8.105469 C 6.402344 8.105469 5.109375 9.574219 5.109375 10.980469 C 5.109375 12.386719 6.402344 13.199219 8 13.199219 C 9.597656 13.199219 10.890625 12.386719 10.890625 10.980469 C 10.890625 9.574219 9.597656 8.105469 8 8.105469 Z M 8 8.105469"/><path style="stroke:none;fill-rule:nonzero;fill:#404040;fill-opacity:1" d="M 7.644531 10.917969 C 7.644531 10.894531 7.648438 10.871094 7.648438 10.851562 C 7.648438 10.828125 7.644531 10.804688 7.644531 10.78125 C 7.628906 10.167969 7.402344 9.804688 7.117188 9.761719 C 7.097656 9.753906 7.078125 9.75 7.054688 9.75 C 7.035156 9.75 7.015625 9.753906 6.992188 9.761719 C 6.707031 9.804688 6.484375 10.167969 6.46875 10.78125 C 6.464844 10.804688 6.464844 10.828125 6.464844 10.851562 C 6.464844 10.871094 6.464844 10.894531 6.46875 10.917969 C 6.484375 11.535156 6.707031 11.894531 6.992188 11.941406 C 7.015625 11.945312 7.035156 11.949219 7.054688 11.949219 C 7.078125 11.949219 7.097656 11.945312 7.117188 11.941406 C 7.402344 11.894531 7.628906 11.535156 7.644531 10.917969 Z M 7.644531 10.917969"/><path style="stroke:none;fill-rule:nonzero;fill:#404040;fill-opacity:1" d="M 9.53125 10.917969 C 9.53125 10.894531 9.535156 10.871094 9.535156 10.851562 C 9.535156 10.828125 9.53125 10.804688 9.53125 10.78125 C 9.515625 10.167969 9.289062 9.804688 9.003906 9.761719 C 8.984375 9.753906 8.964844 9.75 8.941406 9.75 C 8.921875 9.75 8.902344 9.753906 8.878906 9.761719 C 8.59375 9.804688 8.371094 10.167969 8.355469 10.78125 C 8.351562 10.804688 8.351562 10.828125 8.351562 10.851562 C 8.351562 10.871094 8.351562 10.894531 8.355469 10.917969 C 8.371094 11.535156 8.59375 11.894531 8.878906 11.941406 C 8.898438 11.945312 8.921875 11.949219 8.941406 11.949219 C 8.964844 11.949219 8.984375 11.945312 9.003906 11.941406 C 9.289062 11.894531 9.515625 11.535156 9.53125 10.917969 Z M 9.53125 10.917969"/><path style="stroke:none;fill-rule:nonzero;fill:url(#linear1)" d="M 15.273438 5.578125 C 12.859375 5.492188 11.046875 3.738281 10.953125 1.402344 C 11.117188 1.402344 11.421875 1.398438 11.980469 1.398438 C 13.121094 1.398438 14.730469 1.402344 15.273438 1.40625 Z M 15.273438 5.578125"/><path style="stroke:none;fill-rule:nonzero;fill:#ed7e7e;fill-opacity:1" d="M 11.980469 1.585938 C 13.003906 1.585938 14.421875 1.589844 15.085938 1.59375 L 15.085938 5.382812 C 14.050781 5.304688 13.105469 4.902344 12.394531 4.230469 C 11.671875 3.546875 11.238281 2.617188 11.152344 1.589844 C 11.332031 1.585938 11.59375 1.585938 11.980469 1.585938 M 11.980469 1.210938 C 11.285156 1.210938 10.765625 1.214844 10.765625 1.21875 C 10.765625 3.902344 12.859375 5.769531 15.460938 5.769531 L 15.460938 1.21875 C 15.460938 1.21875 13.371094 1.210938 11.980469 1.210938 Z M 11.980469 1.210938"/><path style="stroke:none;fill-rule:nonzero;fill:url(#linear2)" d="M 0.726562 1.40625 C 1.269531 1.402344 2.878906 1.398438 4.019531 1.398438 C 4.578125 1.398438 4.882812 1.402344 5.046875 1.402344 C 4.953125 3.738281 3.140625 5.492188 0.726562 5.578125 Z M 0.726562 1.40625"/><path style="stroke:none;fill-rule:nonzero;fill:#ed7e7e;fill-opacity:1" d="M 4.019531 1.585938 C 4.40625 1.585938 4.667969 1.585938 4.847656 1.589844 C 4.761719 2.617188 4.328125 3.542969 3.605469 4.230469 C 2.894531 4.902344 1.949219 5.304688 0.914062 5.382812 L 0.914062 1.59375 C 1.578125 1.589844 2.996094 1.585938 4.019531 1.585938 M 4.019531 1.210938 C 2.628906 1.210938 0.539062 1.21875 0.539062 1.21875 L 0.539062 5.769531 C 3.140625 5.769531 5.234375 3.902344 5.234375 1.21875 C 5.234375 1.214844 4.714844 1.210938 4.019531 1.210938 Z M 4.019531 1.210938"/></g></svg>

<svg xmlns="http://www.w3.org/2000/svg" width="16pt" height="16pt" viewBox="0 0 16 16"><defs><linearGradient id="a" x1="64" x2="64" y1="118.5" y2="10.998" gradientTransform="scale(.125)" gradientUnits="userSpaceOnUse"><stop offset=".001" style="stop-color:#e08787;stop-opacity:1"/><stop offset=".43" style="stop-color:#ffb5b5;stop-opacity:1"/></linearGradient><linearGradient id="b" x1="-334.83" x2="-334.83" y1="57.052" y2="-34.285" gradientTransform="matrix(-.125 0 0 .125 -28.74 0)" gradientUnits="userSpaceOnUse"><stop offset="0" style="stop-color:#f99;stop-opacity:1"/><stop offset=".43" style="stop-color:#ffb5b5;stop-opacity:1"/></linearGradient><linearGradient id="c" x1="-262.96" x2="-262.96" y1="57.052" y2="-34.285" gradientTransform="translate(35.756)scale(.125)" gradientUnits="userSpaceOnUse"><stop offset="0" style="stop-color:#f99;stop-opacity:1"/><stop offset=".43" style="stop-color:#ffb5b5;stop-opacity:1"/></linearGradient></defs><path d="M8 14.813c-4.27 0-6.719-2.102-6.719-5.762 0-1.918.64-3.828 1.758-5.246.875-1.11 2.445-2.43 4.961-2.43s4.086 1.32 4.96 2.43c1.118 1.418 1.759 3.332 1.759 5.246 0 3.66-2.45 5.762-6.719 5.762m0 0" style="stroke:none;fill-rule:nonzero;fill:url(#a)"/><path d="M8 1.563c2.441 0 3.965 1.28 4.813 2.359 1.093 1.383 1.718 3.254 1.718 5.129 0 1.773-.57 3.16-1.695 4.12-1.113.95-2.79 1.454-4.836 1.454s-3.723-.504-4.836-1.453C2.04 12.21 1.47 10.828 1.47 9.05c0-1.875.625-3.746 1.719-5.13C4.034 2.845 5.558 1.564 8 1.564m0-.375c-4.414 0-6.906 4.05-6.906 7.863C1.094 12.867 3.664 15 8 15s6.906-2.133 6.906-5.95c0-3.812-2.492-7.863-6.906-7.863m0 0" style="stroke:none;fill-rule:nonzero;fill:#ed7e7e;fill-opacity:1"/><path d="M5.309 7.453c0-.719-.516-1.3-1.149-1.3s-1.148.581-1.148 1.3c0 .715.515 1.297 1.148 1.297S5.31 8.168 5.31 7.453M12.988 7.453c0-.719-.515-1.3-1.148-1.3s-1.149.581-1.149 1.3c0 .715.516 1.297 1.149 1.297s1.148-.582 1.148-1.297m0 0" style="stroke:none;fill-rule:nonzero;fill:#404040;fill-opacity:1"/><path d="M8 8.105c-1.598 0-2.89 1.47-2.89 2.875 0 1.407 1.292 2.22 2.89 2.22s2.89-.813 2.89-2.22c0-1.406-1.292-2.875-2.89-2.875m0 0" style="stroke:none;fill-rule:nonzero;fill:#eb7070;fill-opacity:1"/><path d="M7.645 10.918q.001-.036.003-.066-.001-.036-.003-.07c-.016-.614-.243-.977-.528-1.02a.2.2 0 0 0-.062-.012q-.03 0-.063.012c-.285.043-.508.406-.523 1.02q-.005.034-.004.07-.001.03.004.066c.015.617.238.977.523 1.023q.035.007.063.008.034-.001.062-.008c.285-.046.512-.406.528-1.023M9.531 10.918c0-.023.004-.047.004-.066 0-.024-.004-.047-.004-.07-.015-.614-.242-.977-.527-1.02a.2.2 0 0 0-.063-.012q-.029 0-.062.012c-.285.043-.508.406-.524 1.02q-.004.034-.003.07 0 .03.003.066c.016.617.239.977.524 1.023q.032.007.062.008.034-.001.063-.008c.285-.046.512-.406.527-1.023m0 0" style="stroke:none;fill-rule:nonzero;fill:#404040;fill-opacity:1"/><path d="M15.273 5.578c-2.414-.086-4.226-1.84-4.32-4.176.164 0 .469-.004 1.027-.004 1.141 0 2.75.004 3.293.008Zm0 0" style="stroke:none;fill-rule:nonzero;fill:url(#b)"/><path d="M11.98 1.586c1.024 0 2.442.004 3.106.008v3.789c-1.035-.078-1.98-.48-2.691-1.153-.723-.683-1.157-1.613-1.243-2.64.18-.004.442-.004.828-.004m0-.375c-.695 0-1.214.004-1.214.008 0 2.683 2.093 4.55 4.695 4.55V1.22s-2.09-.008-3.48-.008m0 0" style="stroke:none;fill-rule:nonzero;fill:#ed7e7e;fill-opacity:1"/><path d="M.727 1.406c.543-.004 2.152-.008 3.293-.008.558 0 .863.004 1.027.004-.094 2.336-1.906 4.09-4.32 4.176Zm0 0" style="stroke:none;fill-rule:nonzero;fill:url(#c)"/><path d="M4.02 1.586c.386 0 .648 0 .828.004-.086 1.027-.52 1.953-1.243 2.64-.71.672-1.656 1.075-2.69 1.153v-3.79c.663-.003 2.081-.007 3.105-.007m0-.375c-1.391 0-3.48.008-3.48.008v4.55c2.6 0 4.694-1.867 4.694-4.55 0-.004-.52-.008-1.214-.008m0 0" style="stroke:none;fill-rule:nonzero;fill:#ed7e7e;fill-opacity:1"/></svg>
